X:1
T:Diamond -- Reel
R:reel
B:Ryan's Mammoth Collection
Z:Contributed by Ray Davies,  ray:davies99.freeserve.co.uk
M:2/4
L:1/16
K:A
u e2 "^Segno"|\
cAEA ceae | dcBA GABd | cAce agaf | eagb afed |
cAEA ceae | dcBA GABd | cAce a2af | edcB A2 H |]
u(fg)|\
a2gf feec | dcBA GAfg |  a2gf   feec     | fAgA aefg |
agag fedc | dcBA GABd | ((3cBA).e.A fAgA | (af)ed ceae "^Segno"|]
